build/img/icon-logo.svg

<svg width="62" height="55" viewBox="0 0 62 55" fill="none" xmlns="http://www.w3.org/2000/svg">
<path d="M30.7499 36.3268C30.0931 36.3268 29.5605 36.8385 29.5605 37.4698C29.5605 38.101 30.0931 38.6127 30.7499 38.6127H30.7614C31.4182 38.6127 31.9451 38.101 31.9451 37.4698C31.9451 36.8385 31.4069 36.3268 30.7499 36.3268Z" fill="black"/>
<path d="M6.61949 32.09C6.39838 31.8774 6.09152 31.7551 5.7787 31.7551C5.46589 31.7551 5.15902 31.8774 4.93779 32.09C4.71656 32.3026 4.58929 32.5975 4.58929 32.8981C4.58929 33.1998 4.71644 33.4936 4.93779 33.7062C5.15914 33.9187 5.46589 34.041 5.7787 34.041C6.09152 34.041 6.39838 33.9187 6.61949 33.7062C6.84084 33.4936 6.96811 33.1987 6.96811 32.8981C6.96811 32.5975 6.84084 32.3026 6.61949 32.09Z" fill="black"/>
<path d="M56.0906 0.437164H5.18399C2.42944 0.437164 0.188477 2.59066 0.188477 5.23769V37.4698C0.188477 40.621 2.85632 43.1847 6.13552 43.1847H24.2145V47.5285H22.5493C19.7948 47.5285 17.5538 49.682 17.5538 52.329V53.2434C17.5538 53.8746 18.0864 54.3864 18.7432 54.3864H42.5314C43.1882 54.3864 43.7208 53.8746 43.7208 53.2434V52.329C43.7208 49.682 41.4798 47.5285 38.7253 47.5285H37.0601V43.1847H55.1391C58.4183 43.1847 61.0862 40.621 61.0862 37.4698V5.23769C61.0862 2.59066 58.8452 0.437164 56.0906 0.437164V0.437164ZM38.7253 49.8144C40.088 49.8144 41.2107 50.8205 41.3313 52.1004H19.9434C20.064 50.8205 21.1866 49.8144 22.5493 49.8144H38.7253ZM26.5933 47.5285V43.1847H34.6813V47.5285H26.5933ZM58.7073 37.4698C58.7073 39.3605 57.1066 40.8987 55.1391 40.8987H6.13552C4.168 40.8987 2.56729 39.3605 2.56729 37.4698V5.23769C2.56729 3.85114 3.74112 2.72313 5.18399 2.72313H29.4479V31.7553H10.0606C9.40377 31.7553 8.87115 32.267 8.87115 32.8983C8.87115 33.5296 9.40377 34.0413 10.0606 34.0413H58.7073V37.4698V37.4698ZM58.7073 31.7553H31.8267V2.72313H56.0906C57.5335 2.72313 58.7073 3.85114 58.7073 5.23769V31.7553Z" fill="black"/>
<path d="M53.9648 5.00909H35.41C34.7533 5.00909 34.2206 5.52081 34.2206 6.15208V14.3815C34.2206 15.0128 34.7531 15.5245 35.41 15.5245H53.9648C54.6216 15.5245 55.1542 15.0128 55.1542 14.3815V6.15208C55.1542 5.52081 54.6216 5.00909 53.9648 5.00909V5.00909ZM52.7754 13.2386H36.5995V7.29506H52.7754V13.2386Z" fill="black"/>
<path d="M15.1243 17.5818H7.36961C6.71282 17.5818 6.18021 18.0935 6.18021 18.7248C6.18021 19.356 6.71282 19.8677 7.36961 19.8677H15.1243C15.7812 19.8677 16.3137 19.356 16.3137 18.7248C16.3137 18.0935 15.7811 17.5818 15.1243 17.5818V17.5818Z" fill="black"/>
<path d="M25.1402 17.5818H19.2174C18.5606 17.5818 18.028 18.0935 18.028 18.7248C18.028 19.356 18.5606 19.8677 19.2174 19.8677H25.1402C25.797 19.8677 26.3296 19.356 26.3296 18.7248C26.3296 18.0935 25.797 17.5818 25.1402 17.5818Z" fill="black"/>
<path d="M25.1403 26.7244H22.9257C22.2689 26.7244 21.7363 27.2361 21.7363 27.8674C21.7363 28.4986 22.2689 29.0103 22.9257 29.0103H25.1403C25.797 29.0103 26.3297 28.4986 26.3297 27.8674C26.3297 27.2361 25.7972 26.7244 25.1403 26.7244Z" fill="black"/>
<path d="M18.1829 26.7256H7.36962C6.71282 26.7256 6.18021 27.2373 6.18021 27.8686C6.18021 28.4999 6.71282 29.0116 7.36962 29.0116H18.1829C18.8398 29.0116 19.3723 28.4999 19.3723 27.8686C19.3723 27.2373 18.8397 26.7256 18.1829 26.7256Z" fill="black"/>
<path d="M11.2471 22.1535H7.36961C6.71282 22.1535 6.18021 22.6652 6.18021 23.2964C6.18021 23.9277 6.71282 24.4394 7.36961 24.4394H11.2471C11.9039 24.4394 12.4365 23.9277 12.4365 23.2964C12.4365 22.6652 11.9039 22.1535 11.2471 22.1535Z" fill="black"/>
<path d="M25.1402 22.1535H16.9591C16.3023 22.1535 15.7697 22.6652 15.7697 23.2964C15.7697 23.9277 16.3023 24.4394 16.9591 24.4394H25.1402C25.797 24.4394 26.3297 23.9277 26.3297 23.2964C26.3297 22.6652 25.7972 22.1535 25.1402 22.1535V22.1535Z" fill="black"/>
<path d="M53.9648 17.5818H35.4628C34.8061 17.5818 34.2734 18.0935 34.2734 18.7248C34.2734 19.356 34.8061 19.8677 35.4628 19.8677H53.9648C54.6216 19.8677 55.1542 19.356 55.1542 18.7248C55.1542 18.0935 54.6216 17.5818 53.9648 17.5818V17.5818Z" fill="black"/>
<path d="M54.806 27.0608C54.5836 26.8471 54.278 26.726 53.9651 26.726C53.6511 26.726 53.3455 26.8471 53.1242 27.0608C52.9018 27.2734 52.7758 27.5672 52.7758 27.8689C52.7758 28.1695 52.9018 28.4644 53.1242 28.677C53.3455 28.8896 53.6513 29.0119 53.9651 29.0119C54.278 29.0119 54.5836 28.8896 54.806 28.677C55.0271 28.4644 55.1545 28.1695 55.1545 27.8689C55.1545 27.5672 55.0273 27.2734 54.806 27.0608Z" fill="black"/>
<path d="M49.1326 26.7256H35.4628C34.8061 26.7256 34.2734 27.2373 34.2734 27.8686C34.2734 28.4999 34.8061 29.0116 35.4628 29.0116H49.1326C49.7894 29.0116 50.322 28.4999 50.322 27.8686C50.322 27.2373 49.7894 26.7256 49.1326 26.7256Z" fill="black"/>
<path d="M53.9648 22.1535H35.4628C34.8061 22.1535 34.2734 22.6652 34.2734 23.2964C34.2734 23.9277 34.8061 24.4394 35.4628 24.4394H53.9648C54.6216 24.4394 55.1542 23.9277 55.1542 23.2964C55.1542 22.6652 54.6216 22.1535 53.9648 22.1535V22.1535Z" fill="black"/>
<path d="M6.28305 11.2036L7.92516 9.36683C8.2653 8.98636 8.2653 8.36943 7.92516 7.98896C7.58493 7.6085 7.03355 7.6085 6.69323 7.98896L4.43538 10.5148C4.09523 10.8952 4.09523 11.5122 4.43538 11.8926L6.69332 14.4182C6.86343 14.6085 7.08633 14.7036 7.30924 14.7036C7.53214 14.7036 7.75504 14.6084 7.92516 14.4182C8.2653 14.0378 8.2653 13.4208 7.92516 13.0404L6.28305 11.2036V11.2036Z" fill="black"/>
<path d="M27.1178 10.515L24.8599 7.98929C24.5198 7.60881 23.9685 7.60881 23.628 7.98929C23.2879 8.36977 23.2879 8.98672 23.628 9.3672L25.2701 11.204L23.628 13.0408C23.2879 13.4211 23.2879 14.038 23.6281 14.4186C23.7982 14.6088 24.0211 14.7039 24.244 14.7039C24.4669 14.7039 24.6898 14.6087 24.8599 14.4186L27.1178 11.8929C27.4579 11.5124 27.4579 10.8954 27.1178 10.515V10.515Z" fill="black"/>
<path d="M10.663 12.7696L11.9716 8.71196H12.8945L10.9999 13.9952H10.3115L8.3974 8.71196H9.32025L10.663 12.7696ZM15.5068 12.7696L16.8154 8.71196H17.7382L15.8437 13.9952H15.1552L13.2411 8.71196H14.164L15.5068 12.7696ZM20.3505 12.7696L21.6591 8.71196H22.582L20.6874 13.9952H19.999L18.0849 8.71196H19.0078L20.3505 12.7696Z" fill="black"/>
</svg>

<svg width="62" height="55" fill="none" xmlns="http://www.w3.org/2000/svg"><path d="M30.75 36.327c-.657 0-1.19.512-1.19 1.143s.533 1.143 1.19 1.143h.011c.657 0 1.184-.512 1.184-1.143s-.538-1.143-1.195-1.143zM6.62 32.09a1.223 1.223 0 00-1.682 0 1.13 1.13 0 00-.349.808c0 .302.127.596.349.808a1.224 1.224 0 001.681 0c.222-.212.35-.507.35-.808 0-.3-.128-.595-.35-.808z" fill="#000"/><path d="M56.09.437H5.185C2.429.437.188 2.591.188 5.237V37.47c0 3.151 2.668 5.715 5.948 5.715h18.079v4.343h-1.666c-2.754 0-4.995 2.154-4.995 4.801v.914c0 .632.532 1.143 1.19 1.143H42.53c.657 0 1.19-.511 1.19-1.143v-.914c0-2.647-2.241-4.8-4.996-4.8H37.06v-4.344h18.08c3.278 0 5.946-2.564 5.946-5.715V5.238c0-2.647-2.24-4.8-4.995-4.8zM38.726 49.814c1.363 0 2.486 1.007 2.606 2.286H19.943c.121-1.28 1.244-2.286 2.606-2.286h16.176zM26.593 47.53v-4.344h8.088v4.343h-8.088zm32.114-10.06c0 1.892-1.6 3.43-3.568 3.43H6.136c-1.968 0-3.569-1.538-3.569-3.43V5.239c0-1.387 1.174-2.515 2.617-2.515h24.264v29.032H10.06c-.657 0-1.19.512-1.19 1.143 0 .632.533 1.143 1.19 1.143h48.646v3.429zm0-5.714h-26.88V2.723H56.09c1.442 0 2.616 1.128 2.616 2.515v26.517z" fill="#000"/><path d="M53.965 5.01H35.41c-.657 0-1.19.51-1.19 1.142v8.23c0 .63.533 1.143 1.19 1.143h18.555c.657 0 1.19-.512 1.19-1.143v-8.23c0-.631-.533-1.143-1.19-1.143zm-1.19 8.229H36.6V7.295h16.175v5.944zm-37.651 4.343H7.37c-.657 0-1.19.511-1.19 1.143 0 .631.533 1.143 1.19 1.143h7.754c.657 0 1.19-.512 1.19-1.143 0-.632-.533-1.143-1.19-1.143zm10.016 0h-5.923c-.656 0-1.189.511-1.189 1.143 0 .631.533 1.143 1.19 1.143h5.922c.657 0 1.19-.512 1.19-1.143 0-.632-.533-1.143-1.19-1.143zm0 9.142h-2.214c-.657 0-1.19.512-1.19 1.143 0 .632.533 1.143 1.19 1.143h2.214c.657 0 1.19-.511 1.19-1.143 0-.63-.533-1.143-1.19-1.143zm-6.957.002H7.37c-.657 0-1.19.511-1.19 1.143 0 .63.533 1.143 1.19 1.143h10.813c.657 0 1.19-.512 1.19-1.143 0-.632-.533-1.143-1.19-1.143zm-6.936-4.572H7.37c-.657 0-1.19.511-1.19 1.142 0 .632.533 1.143 1.19 1.143h3.877c.657 0 1.19-.511 1.19-1.143 0-.63-.533-1.142-1.19-1.142zm13.893 0h-8.18c-.658 0-1.19.511-1.19 1.142 0 .632.532 1.143 1.19 1.143h8.18c.657 0 1.19-.511 1.19-1.143 0-.63-.533-1.142-1.19-1.142zm28.825-4.572H35.463c-.657 0-1.19.511-1.19 1.143 0 .631.533 1.143 1.19 1.143h18.502c.657 0 1.19-.512 1.19-1.143 0-.632-.533-1.143-1.19-1.143zm.841 9.478a1.22 1.22 0 00-1.682 0 1.123 1.123 0 00-.348.809c0 .3.126.595.348.808a1.222 1.222 0 001.682 0 1.13 1.13 0 00.349-.808c0-.302-.128-.596-.349-.808zm-5.673-.334h-13.67c-.657 0-1.19.511-1.19 1.143 0 .63.533 1.143 1.19 1.143h13.67c.656 0 1.189-.512 1.189-1.143 0-.632-.533-1.143-1.19-1.143zm4.832-4.572H35.463c-.657 0-1.19.511-1.19 1.142 0 .632.533 1.143 1.19 1.143h18.502c.657 0 1.19-.511 1.19-1.143 0-.63-.533-1.142-1.19-1.142zM6.283 11.204l1.642-1.837c.34-.38.34-.998 0-1.378a.808.808 0 00-1.232 0l-2.258 2.526c-.34.38-.34.997 0 1.378l2.258 2.525c.17.19.393.286.616.286a.824.824 0 00.616-.286c.34-.38.34-.997 0-1.378l-1.642-1.836zm20.835-.689L24.86 7.989a.807.807 0 00-1.232 0c-.34.38-.34.998 0 1.378l1.642 1.837-1.642 1.837c-.34.38-.34.997 0 1.378.17.19.393.285.616.285a.824.824 0 00.616-.285l2.258-2.526c.34-.38.34-.998 0-1.378zM10.663 12.77l1.309-4.058h.923L11 13.995h-.688L8.396 8.712h.923l1.343 4.058zm4.844 0l1.308-4.058h.923l-1.894 5.283h-.689l-1.914-5.283h.923l1.343 4.058zm4.844 0l1.308-4.058h.923l-1.895 5.283H20l-1.914-5.283h.923l1.343 4.058z" fill="#000"/></svg>
